X:1
T:Rimsky-Korsakov Harmonic Exercises 28
T:Rimsky-Korsakov Harmonic Exercises 28
T:"Practical Manual of Harmony" (1885)
T:Realization by S. Shchetnikov
%%score { ( 1 3 ) | ( 2 4 ) }
L:1/8
Q:1/2=80
M:4/4
K:D
V:1 treble nm="Piano" snm="Pno."
V:3 treble 
V:2 bass 
V:4 bass 
V:1
"^Exercise 28.1""^Harmonization the melody with strict melodic figuration in the 3 lower voices" (F4 D4 | %1
 A4 B4 | A4 G4 | F4 !fermata!D4 | d4 c4 | B4 c4 | B4 B4 | !fermata!A4 A4 | d4 c4 | !fermata!B8 | %10
 A4 A4 | B4 A4 | B4 d4 | c4 !fermata!c4 | d4 A4 | B4 A4 | G4 F4 | E4 !fermata!E4 | z4 d4 | d4 c4 | %20
 !breath!!fermata!d8) |] %21
"""^Realization 28.1 ("[Q:1/4=80]"_D:""^passing tones""^,""^suspensions""^,""^auxiliary tones""^)" (F4"" D4 | %22
"" A4"" B4 |"" A4"" G4 |"" F4[Q:1/4=75]"""_D:""_b:""_{" !breath!!fermata!D4) |"""_b:" (d4"""" c4 | %26
"""_b:""_D:""_{" B4 c4 | B4 B4 |[Q:1/4=75] !fermata!A4)[Q:1/4=80] (A4 |"""_D:""_b:""_{" d4"""" c4 | %30
"""_b:""_D:""_{" !fermata!B8) | (A4 A4 | B4 A4 | B4 d4 |[Q:1/4=75]"_D:" c4 !fermata!c4) | %35
[Q:1/4=80] (d4 A4 | B4 A4 | G4 F4 |"_D:" E4 !fermata!E4 | z4 d4 | %40
[Q:1/4=80] d4[Q:1/4=73][Q:1/4=70][Q:1/4=67]"^.9" c4[Q:1/4=62]"^.8" | %41
[Q:1/4=58] !fermata!d8)[Q:1/4=40] |] %42
V:2
 z8 | z8 | z8 | z8 | z8 | z8 | z8 | z8 | z8 | z8 | z8 | z8 | z8 | z8 | z8 | z8 | z8 | z8 | z8 | %19
 z8 | z8 |] (A,F,G,A, B,DCB, | A,4 DCB,C | D4- D2 C2 | A,4 F,4) | B,DCB, ^A,F,^G,A, | %26
 B,G,A,B, A,4 | G,4 G,B,A,G, | F,4 (A,4 | B,4 ^A,F,^G,A, | B,8) | (E4 D4 | D4 D4 | D3 C B,DCB, | %34
 A,B,CD E4) | (DEDC D4 | D4 CEDC | B,DCB, A,3 B, | CDCB, A,4 | A,4 B,4 | A,6 G,2- | %41
 G,2) F,E, !fermata!F,4 |] %42
V:3
 x8 | x8 | x8 | x8 | x8 | x8 | x8 | x8 | x8 | x8 | x8 | x8 | x8 | x8 | x8 | x8 | x8 | x8 | x8 | %19
 x8 | x8 |] (D4 D4 | FGFE D3 E | FAGF E4- | E2 DC"" D4) | (F6 E2 |"" D4"" CDEF |"" GAGF"" E4 | %28
"" F)E !fermata!F2"" (EGFE |"" D2 F2 F2 E2 |"" D8) |"" (G4"" FDEF |"" G4"" AG""FE |"" DE F2"" G4 | %34
"" E4"" A3)"" G |"" (FGFE"" F4 |"" GAGF"" E4 |"" D4"" D2 CD |"" E3 D"" C3 D |"" EFG""A"" GBAG | %40
"" F2"^.4" G"^.6"F"""" E4- |"" E2) DC !fermata!D4 |] %42
V:4
 x8 | x8 | x8 | x8 | x8 | x8 | x8 | x8 | x8 | x8 | x8 | x8 | x8 | x8 | x8 | x8 | x8 | x8 | x8 | %19
 x8 | x8 |] (D,4 G,4 | D,4 G,,4 | A,,4 A,,4 | D,4 !fermata!D,4) | (B,,4 F,,4 | G,,4 A,,4 | %27
 B,,4 C,4 | !fermata!D,4) (C,4 | B,,C,D,E, F,4 | G,8) | (C,A,,B,,C, D,4 | G,B,A,G, F,E,D,C, | %33
 B,,C,B,,A,, G,,4 | A,,4 !fermata!A,4) | (D,4 D,C,B,,A,, | G,,4 A,,4 | B,,4 D,4 | %38
 A,,4 A,,^G,,A,,"_cresc."B,, | C,D,E,F, G,4 | A,4 A,,4 | !fermata!D,8) |] %42

